icons/Color/24/media-floppy.svg

<svg height="24" viewBox="0 0 24 24" width="24" xmlns="http://www.w3.org/2000/svg"><g transform="matrix(.57118758 0 0 .58691647 -1.710045 -1.8008)"><path d="m4.9016086 3.9323938h38.2009444c.578848 0 1.044854.4657562 1.044854 1.0442965v37.0760177c0 .578539-.466006 1.044297-1.044854 1.044297h-36.2363958s-3.009402-3.007798-3.009402-3.007798v-35.1125167c0-.5785403.4660045-1.0442965 1.0448534-1.0442965z" fill="#3465a4" stroke="#25375f" stroke-linecap="round" stroke-linejoin="round" stroke-width="1.727068"/><path d="m9.996795 9.883519h28.011814v17.0382h-28.011814z" fill="#fff"/><rect fill="#d31c00" height="5.111538" rx=".117844" ry=".161279" width="28.011814" x="9.996795" y="4.771981"/><rect height="1.70382" opacity=".738636" rx=".110478" ry=".107518" width="1.750738" x="6.495318" y="6.475879"/><path d="m4.6189226 4.5276647h38.7684814c.06992 0 .126208.056289.126208.1262077v37.6482386c0 .06992-.05629.126208-.126208.126208h-36.4591222s-2.4355669-2.391373-2.4355669-2.391373v-35.3830736c0-.069919.056289-.1262077.1262077-.1262077z" fill="none" opacity=".596591" stroke-linecap="round"/><g stroke="#525252"><path d="m14.185763 29.470343h19.633877c.882757 0 1.593426.688333 1.593426 1.543347v12.101424h-22.820729v-12.101424c0-.855014.710669-1.543347 1.593426-1.543347z" fill="#d3d7cf" stroke-width="1.689607"/><rect fill="#4967a2" height="9.327216" rx=".650645" ry=".696076" stroke-width=".89586" width="4.356435" x="16.572403" y="31.628906"/></g></g></svg>

<?xml version="1.0" encoding="UTF-8" standalone="no"?>
<svg
   xmlns:dc="http://purl.org/dc/elements/1.1/"
   xmlns:cc="http://creativecommons.org/ns#"
   xmlns:rdf="http://www.w3.org/1999/02/22-rdf-syntax-ns#"
   xmlns:svg="http://www.w3.org/2000/svg"
   xmlns="http://www.w3.org/2000/svg"
   xmlns:sodipodi="http://sodipodi.sourceforge.net/DTD/sodipodi-0.dtd"
   xmlns:inkscape="http://www.inkscape.org/namespaces/inkscape"
   width="24"
   height="24"
   viewBox="0 0 24 24"
   id="svg30571"
   version="1.1"
   inkscape:version="0.92pre1 unknown"
   sodipodi:docname="gimp-floppy.svg">
  <defs
     id="defs30573" />
  <sodipodi:namedview
     id="base"
     pagecolor="#ffffff"
     bordercolor="#666666"
     borderopacity="1"
     inkscape:pageopacity="0"
     inkscape:pageshadow="2"
     inkscape:zoom="5.1489741"
     inkscape:cx="22.25049"
     inkscape:cy="8.4545305"
     inkscape:document-units="px"
     inkscape:current-layer="layer1"
     showgrid="true"
     units="px"
     inkscape:snap-page="true"
     inkscape:snap-bbox="true"
     inkscape:bbox-paths="true"
     inkscape:bbox-nodes="true"
     inkscape:snap-bbox-edge-midpoints="true"
     inkscape:snap-bbox-midpoints="true"
     inkscape:object-paths="true"
     inkscape:snap-intersection-paths="true"
     inkscape:object-nodes="true"
     inkscape:snap-smooth-nodes="true"
     inkscape:snap-midpoints="true"
     inkscape:snap-object-midpoints="true"
     inkscape:snap-center="true"
     inkscape:snap-text-baseline="true"
     showborder="false"
     inkscape:window-width="1920"
     inkscape:window-height="1016"
     inkscape:window-x="0"
     inkscape:window-y="27"
     inkscape:window-maximized="1"
     inkscape:snap-global="false"
     showguides="true">
    <inkscape:grid
       type="xygrid"
       id="grid4291" />
  </sodipodi:namedview>
  <metadata
     id="metadata30576">
    <rdf:RDF>
      <cc:Work
         rdf:about="">
        <dc:format>
          image/svg+xml
        </dc:format>
        <dc:type
           rdf:resource="http://purl.org/dc/dcmitype/StillImage" />
        <dc:creator>
          <cc:Agent>
            <dc:title>Klaus Staedtler       </dc:title>
          </cc:Agent>
        </dc:creator>
        <dc:title></dc:title>
      </cc:Work>
    </rdf:RDF>
  </metadata>
  <g
     inkscape:label="Layer 1"
     inkscape:groupmode="layer"
     id="layer1"
     transform="translate(0,-1028.3622)">
    <g
       id="g3972"
       transform="matrix(0.57118758,0,0,0.58691647,-1.710045,1026.5614)">
      <path
         sodipodi:nodetypes="ccccccccc"
         id="rect2259"
         d="M 4.9016086,3.9323938 H 43.102553 c 0.578848,0 1.044854,0.4657562 1.044854,1.0442965 V 42.052708 c 0,0.578539 -0.466006,1.044297 -1.044854,1.044297 H 6.8661572 c 0,0 -3.009402,-3.007798 -3.009402,-3.007798 V 4.9766903 c 0,-0.5785403 0.4660045,-1.0442965 1.0448534,-1.0442965 z"
         style="fill:#3465a4;fill-opacity:1;stroke:#25375f;stroke-width:1.72706807;stroke-linecap:round;stroke-linejoin:round;stroke-miterlimit:4;stroke-dasharray:none;stroke-dashoffset:0;stroke-opacity:1"
         inkscape:connector-curvature="0" />
      <rect
         y="9.8835192"
         x="9.9967947"
         height="17.0382"
         width="28.011814"
         id="rect2328"
         style="opacity:1;fill:#ffffff;fill-opacity:1;stroke:none;stroke-width:0.83168322;stroke-linecap:butt;stroke-linejoin:miter;stroke-miterlimit:4;stroke-dasharray:none;stroke-dashoffset:0;stroke-opacity:1" />
      <rect
         style="opacity:1;fill:#d31c00;fill-opacity:1;stroke:none;stroke-width:1.09233487;stroke-linecap:butt;stroke-linejoin:miter;stroke-miterlimit:4;stroke-dasharray:none;stroke-dashoffset:0;stroke-opacity:1"
         id="rect2330"
         width="28.011814"
         height="5.1115379"
         x="9.9967947"
         y="4.7719808"
         rx="0.11784358"
         ry="0.16127887" />
      <rect
         ry="0.10751761"
         rx="0.11047835"
         y="6.4758792"
         x="6.4953179"
         height="1.70382"
         width="1.7507384"
         id="rect2332"
         style="opacity:0.73863639;fill:#000000;fill-opacity:1;stroke:none;stroke-width:0.8635599;stroke-linecap:butt;stroke-linejoin:miter;stroke-miterlimit:4;stroke-dasharray:none;stroke-dashoffset:0;stroke-opacity:1" />
      <path
         sodipodi:nodetypes="ccccccccc"
         id="rect2273"
         d="M 4.6189226,4.5276647 H 43.387404 c 0.06992,0 0.126208,0.056289 0.126208,0.1262077 V 42.302111 c 0,0.06992 -0.05629,0.126208 -0.126208,0.126208 H 6.9282818 c 0,0 -2.4355669,-2.391373 -2.4355669,-2.391373 V 4.6538724 c 0,-0.069919 0.056289,-0.1262077 0.1262077,-0.1262077 z"
         style="opacity:0.59659095;fill:none;fill-opacity:1;stroke:url(#linearGradient2283);stroke-width:1;stroke-linecap:round;stroke-linejoin:miter;stroke-miterlimit:4;stroke-dashoffset:0;stroke-opacity:1"
         inkscape:connector-curvature="0" />
      <path
         sodipodi:nodetypes="ccccccc"
         id="rect2340"
         d="M 14.185763,29.470343 H 33.81964 c 0.882757,0 1.593426,0.688333 1.593426,1.543347 v 12.101424 c 0,0 -22.820729,0 -22.820729,0 V 31.01369 c 0,-0.855014 0.710669,-1.543347 1.593426,-1.543347 z"
         style="fill:#d3d7cf;fill-opacity:1;stroke:#525252;stroke-width:1.68960738;stroke-linecap:butt;stroke-linejoin:miter;stroke-miterlimit:4;stroke-dasharray:none;stroke-dashoffset:0;stroke-opacity:1"
         inkscape:connector-curvature="0" />
      <rect
         ry="0.69607556"
         rx="0.65064532"
         y="31.628906"
         x="16.572403"
         height="9.3272161"
         width="4.3564348"
         id="rect2359"
         style="opacity:1;fill:#4967a2;fill-opacity:1;stroke:#525252;stroke-width:0.89586031;stroke-linecap:butt;stroke-linejoin:miter;stroke-miterlimit:4;stroke-dasharray:none;stroke-dashoffset:0;stroke-opacity:1" />
    </g>
  </g>
</svg>
